X: 20985
T: Julia Clifford's
R: polka
M: 2/4
K: Dmajor
|:e|fa ge|ff/a/ ge|fd ed|e/f/e/d/ BA|
f2 ge|ff/a/ ge|fd ec|df d:|
|:B|A>B AF|Af af|ed ef/e/|dA B/c/d/B/|
A>B AF|Af af|ef gb|ef/e/ d:|

